X: 10932
T: RACHEL RAE -- Reel
C: Mr. Lowe
R: reel
B: K\"ohler's Violin Repository, v.1, 1885 p.93 #2
F: http://www.archive.org/details/klersviolinrepos01edin
Z: 2012 John Chambers <jc:trillian.mit.edu>
M: C|
L: 1/8
K: D
|:\
vD2FA d2AF | d2fd e2cA |\
d2AF B2GF | E2AG FDD2 :|\
v(de)fg a2fd | g2bg e2cA |
(de)fg a2gf | (eg)fe (fd)dA |\
(de)fg a2fd | (gb)gb e2cA |\
d2AF B2GF | E2AG FD"^Fine."D2 |]

%%sep 2 1 500

